Yaru++/mimetypes/16/text-x-cmake.svg

<svg height="16" viewBox="0 0 4.233125 4.233125" width="16" xmlns="http://www.w3.org/2000/svg" xmlns:xlink="http://www.w3.org/1999/xlink"><linearGradient id="a" gradientUnits="userSpaceOnUse" x1="2.116712" x2="2.116712" y1=".26457" y2="3.968555"><stop offset="0" stop-color="#fff"/><stop offset=".125" stop-color="#fff" stop-opacity=".098039"/><stop offset=".92500001" stop-color="#fff" stop-opacity=".098039"/><stop offset="1" stop-color="#fff" stop-opacity=".498039"/></linearGradient><linearGradient id="b" gradientTransform="matrix(0 -.00953618 .00953591 0 -.942984 4.473643)" gradientUnits="userSpaceOnUse" x1="459.03448" x2="35.310345" y1="419.23337" y2="207.36522"><stop offset="0" stop-color="#f2f2f2"/><stop offset="1" stop-color="#f9f9f9"/></linearGradient><path d="m1.3483189.26457027c-.1902367 0-.3444309.00368-.48573259.027388-.1413044.023732-.2826405.073095-.3906566.1808577-.1080135.1077595-.1578347.2495506-.1813735.3911698-.023547.14162183-.026772.29644573-.025849.48728563v.7652908 1.0314115c-.0007937.1900038.00238.3445631.025849.4857352.023547.1416192.073357.2834104.1813735.3911699.1080161.1077621.2493522.1571389.3906566.1808576.14130169.023732.29549589.027388.48573259.027388h1.5367831c.1902367 0 .3440949-.00362.4852167-.027388.1411245-.023759.2824765-.07353.3901381-.1813739.1076616-.1078435.1571653-.2494124.1808576-.3906533.0236949-.1412435.0273883-.2951308.0273883-.4857352v-1.0314115-.7937109l-1.0582812-1.05828133z" opacity=".1"/><path d="m1.34852.26457027c-.74283149 0-.82275819.076299-.81911769.82063363v1.0313586 1.0313586c-.00365.7443342.076286.8206336.81911769.8206336h1.5364921c.7428341 0 .8191203-.076289.8191203-.8206336v-1.0313586-1.0582813l-.7937109-.79371093z" fill="none" opacity=".2" stroke="#000" stroke-width=".529141"/><path d="m1.34852.26457027c-.74283149 0-.82275819.076299-.81911769.82063363v1.0313586 1.0313586c-.00365.7443342.076286.8206336.81911769.8206336h1.5364921c.7428341 0 .8191203-.076289.8191203-.8206336v-1.0313586-1.0582813l-.7937109-.79371093z" fill="url(#b)"/><path d="m1.7440685 3.2409837c.2082671-.2168154.3985513-.4422214.4228574-.5009057.0242876-.058687.1201361-.1745661.2129553-.2575116.2429655-.217117.3847223-.2000813.5067104.060896.031079.066492.073855.1208954.09506.1208954.048498 0 .272145-.2177017.272145-.2649116 0-.061161-.1147547-.1665735-.1813365-.1665735-.070204 0-.1374311-.1008119-.1374311-.2060818 0-.079768-.2195934-.3018297-.3789917-.3832433-.07595-.038799-.2067326-.057898-.396366-.057898-.2866619 0-.4064858.047501-.2230143.088409.055118.012276.1588586.071415.2305281.1313909.1845431.1544297.177106.270457-.033373.5205738-.090028.106979-.1857548.1945068-.2127304.1945068-.059655 0-.8632321.7471095-.8632321.8025741 0 .041873.2467012.3120924.284929.3120924.012435 0 .1930226-.1773944.4012899-.3942129z" fill="#808080" opacity=".5" stroke-width=".069164"/><path d="m2.1167105.26457027v3.70398443h.7683915c.7428341 0 .8190304-.076236.8190304-.8205807v-1.0314115-1.0582813l-.7937109-.79371093z" fill="#fff" opacity=".2"/><path d="m.52928851 2.1165625v1.0314115c-.00365.7443342.076199.8205807.81903039.8205807h1.5367831c.7428341 0 .8190304-.076236.8190304-.8205807v-1.0314115z" fill="#fff" opacity=".2"/><path d="m1.3483189.26457027c-.74283149 0-.82267089.076246-.81903039.82058073v1.0314115 1.0314115c-.00365.7443342.076199.8205807.81903039.8205807h1.5367831c.7428341 0 .8190304-.076236.8190304-.8205807v-1.0314115-1.0582813l-.7937109-.79371093zm0 .2645703h1.5621026l.5291406.52914063v1.0582813 1.0314115c0 .1815667-.00582.3159975-.019631.3984058-.013811.082406-.029841.09959-.034103.1038651-.00426.00426-.021245.020293-.1033491.034103-.082112.013816-.2161962.019636-.3973767.019636h-1.5367834c-.1811778 0-.315397-.0063-.39788729-.02016-.082493-.013837-.1000155-.029235-.104381-.033587-.00436-.00437-.019949-.021324-.03359-.1033491-.013625-.08203-.019499-.216564-.018599-.3978899v-.0005292-1.0319062-1.0319274-.0005291c-.0007937-.18132863.00497-.31585993.018599-.39789003.013625-.08203.029222-.098992.03359-.1033491.00436-.00436.02188-.019737.104381-.033587.08249-.013837.21670949-.02016.39788729-.02016z" fill="url(#a)" opacity=".4"/><path d="m3.7041324 1.3228516v-.2645704l-.7937109-.79371093h-.2645704v.4049434.01553.00833c0 .54761033.073304.63205063.6221715.62936523z" opacity=".2"/><path d="m3.7041324 1.0581807-.7937109-.79361043v.2943848.012832.00688c0 .45177763.020822.48176403.4736364.47954953z" fill="#faf8f6"/></svg>

<?xml version="1.0" encoding="UTF-8" standalone="no"?>
<svg
   xmlns:dc="http://purl.org/dc/elements/1.1/"
   xmlns:cc="http://creativecommons.org/ns#"
   xmlns:rdf="http://www.w3.org/1999/02/22-rdf-syntax-ns#"
   xmlns:svg="http://www.w3.org/2000/svg"
   xmlns="http://www.w3.org/2000/svg"
   xmlns:xlink="http://www.w3.org/1999/xlink"
   xmlns:sodipodi="http://sodipodi.sourceforge.net/DTD/sodipodi-0.dtd"
   xmlns:inkscape="http://www.inkscape.org/namespaces/inkscape"
   height="16"
   viewBox="0 0 4.233125 4.233125"
   width="16"
   version="1.1"
   id="svg35"
   sodipodi:docname="text-richtext.svg"
   inkscape:version="0.92.5 (2060ec1f9f, 2020-04-08)">
  <metadata
     id="metadata41">
    <rdf:RDF>
      <cc:Work
         rdf:about="">
        <dc:format>image/svg+xml</dc:format>
        <dc:type
           rdf:resource="http://purl.org/dc/dcmitype/StillImage" />
        <dc:title></dc:title>
      </cc:Work>
    </rdf:RDF>
  </metadata>
  <defs
     id="defs39">
    <linearGradient
       gradientTransform="matrix(0.26457031,0,0,0.26457031,-84.66235,-62.438593)"
       inkscape:collect="always"
       xlink:href="#linearGradient927"
       id="linearGradient993"
       x1="328"
       y1="237"
       x2="328"
       y2="251"
       gradientUnits="userSpaceOnUse" />
    <linearGradient
       inkscape:collect="always"
       id="linearGradient927">
      <stop
         style="stop-color:#ffffff;stop-opacity:1;"
         offset="0"
         id="stop923" />
      <stop
         id="stop933"
         offset="0.125"
         style="stop-color:#ffffff;stop-opacity:0.09803922" />
      <stop
         id="stop931"
         offset="0.92500001"
         style="stop-color:#ffffff;stop-opacity:0.09803922" />
      <stop
         style="stop-color:#ffffff;stop-opacity:0.49803922"
         offset="1"
         id="stop925" />
    </linearGradient>
    <linearGradient
       inkscape:collect="always"
       xlink:href="#linearGradient4338"
       id="linearGradient920"
       gradientUnits="userSpaceOnUse"
       gradientTransform="matrix(0,-0.00953618,0.00953591,0,-0.94298429,4.4736432)"
       x1="459.03448"
       y1="419.23337"
       x2="35.310345"
       y2="207.36522" />
    <linearGradient
       inkscape:collect="always"
       id="linearGradient4338">
      <stop
         style="stop-color:#f2f2f2;stop-opacity:1"
         offset="0"
         id="stop4340" />
      <stop
         style="stop-color:#f9f9f9;stop-opacity:1"
         offset="1"
         id="stop4342" />
    </linearGradient>
  </defs>
  <sodipodi:namedview
     pagecolor="#ffffff"
     bordercolor="#666666"
     borderopacity="1"
     objecttolerance="10"
     gridtolerance="10"
     guidetolerance="10"
     inkscape:pageopacity="0"
     inkscape:pageshadow="2"
     inkscape:window-width="834"
     inkscape:window-height="480"
     id="namedview37"
     showgrid="false"
     inkscape:zoom="14.75"
     inkscape:cx="-5.559322"
     inkscape:cy="8"
     inkscape:window-x="0"
     inkscape:window-y="28"
     inkscape:window-maximized="0"
     inkscape:current-layer="svg35" />
  <linearGradient
     id="a"
     gradientUnits="userSpaceOnUse"
     x1="328"
     x2="328"
     y1="237"
     y2="251">
    <stop
       offset="0"
       stop-color="#fff"
       id="stop2" />
    <stop
       offset=".125"
       stop-color="#fff"
       stop-opacity=".098039"
       id="stop4" />
    <stop
       offset=".92500001"
       stop-color="#fff"
       stop-opacity=".098039"
       id="stop6" />
    <stop
       offset="1"
       stop-color="#fff"
       stop-opacity=".498039"
       id="stop8" />
  </linearGradient>
  <clipPath
     id="b">
    <path
       d="m325.09646 237c-2.80769 0-3.10979.28839-3.09603 3.10176v3.89824 3.89824c-.0138 2.81337.28834 3.10176 3.09603 3.10176h5.8075c2.8077 0 3.09604-.28835 3.09604-3.10176v-3.89824-3.89824c0-2.8134-.28835-3.10176-3.09604-3.10176z"
       id="path11" />
  </clipPath>
  <linearGradient
     id="c"
     gradientTransform="matrix(0 -.00953618 .00953591 0 -.942985 4.473643)"
     gradientUnits="userSpaceOnUse"
     x1="459.03448"
     x2="35.310345"
     y1="419.23337"
     y2="207.36522">
    <stop
       offset="0"
       stop-color="#f2f2f2"
       id="stop14" />
    <stop
       offset="1"
       stop-color="#f9f9f9"
       id="stop16" />
  </linearGradient>
  <path
     style="color:#000000;font-style:normal;font-variant:normal;font-weight:normal;font-stretch:normal;font-size:medium;line-height:normal;font-family:sans-serif;font-variant-ligatures:normal;font-variant-position:normal;font-variant-caps:normal;font-variant-numeric:normal;font-variant-alternates:normal;font-feature-settings:normal;text-indent:0;text-align:start;text-decoration:none;text-decoration-line:none;text-decoration-style:solid;text-decoration-color:#000000;letter-spacing:normal;word-spacing:normal;text-transform:none;writing-mode:lr-tb;direction:ltr;text-orientation:mixed;dominant-baseline:auto;baseline-shift:baseline;text-anchor:start;white-space:normal;shape-padding:0;clip-rule:nonzero;display:inline;overflow:visible;visibility:visible;opacity:0.1;isolation:auto;mix-blend-mode:normal;color-interpolation:sRGB;color-interpolation-filters:linearRGB;solid-color:#000000;solid-opacity:1;vector-effect:none;fill:#000000;fill-opacity:1;fill-rule:nonzero;stroke:none;stroke-width:0.52914065;stroke-linecap:butt;stroke-linejoin:miter;stroke-miterlimit:4;stroke-dasharray:none;stroke-dashoffset:0;stroke-opacity:1;marker:none;color-rendering:auto;image-rendering:auto;shape-rendering:auto;text-rendering:auto;enable-background:accumulate"
     d="m 1.3483189,0.26457027 c -0.1902367,0 -0.3444309,0.00368 -0.48573259,0.027388 -0.1413044,0.023732 -0.2826405,0.073095 -0.3906566,0.1808577 -0.1080135,0.1077595 -0.1578347,0.2495506 -0.1813735,0.3911698 -0.023547,0.14162183 -0.026772,0.29644573 -0.025849,0.48728563 v 0.7652908 1.0314115 c -7.937e-4,0.1900038 0.00238,0.3445631 0.025849,0.4857352 0.023547,0.1416192 0.073357,0.2834104 0.1813735,0.3911699 0.1080161,0.1077621 0.2493522,0.1571389 0.3906566,0.1808576 0.14130169,0.023732 0.29549589,0.027388 0.48573259,0.027388 H 2.885102 c 0.1902367,0 0.3440949,-0.00362 0.4852167,-0.027388 C 3.5114432,4.1819774 3.6527952,4.1322064 3.7604568,4.0243625 3.8681184,3.916519 3.9176221,3.7749501 3.9413144,3.6337092 3.9650093,3.4924657 3.9687027,3.3385784 3.9687027,3.147974 V 2.1165625 1.3228516 L 2.9104215,0.26457027 Z"
     id="path997"
     inkscape:connector-curvature="0"
     sodipodi:nodetypes="scscccccccsscscscccs" />
  <path
     sodipodi:nodetypes="scccssscccs"
     inkscape:connector-curvature="0"
     id="path928"
     d="m 1.34852,0.26457027 c -0.74283149,0 -0.82275819,0.076299 -0.81911769,0.82063363 v 1.0313586 1.0313586 c -0.00365,0.7443342 0.076286,0.8206336 0.81911769,0.8206336 h 1.5364921 c 0.7428341,0 0.8191203,-0.076289 0.8191203,-0.8206336 V 2.1165625 1.0582812 L 2.9104215,0.26457027 Z"
     style="color:#000000;display:inline;overflow:visible;visibility:visible;opacity:0.2;fill:none;fill-opacity:1;fill-rule:nonzero;stroke:#000000;stroke-width:0.52914065;stroke-miterlimit:4;stroke-dasharray:none;stroke-opacity:1;marker:none;enable-background:accumulate" />
  <path
     style="color:#000000;display:inline;overflow:visible;visibility:visible;fill:url(#linearGradient920);fill-opacity:1;fill-rule:nonzero;stroke:none;stroke-width:0.26457033;marker:none;enable-background:accumulate"
     d="m 1.34852,0.26457027 c -0.74283149,0 -0.82275819,0.076299 -0.81911769,0.82063363 v 1.0313586 1.0313586 c -0.00365,0.7443342 0.076286,0.8206336 0.81911769,0.8206336 h 1.5364921 c 0.7428341,0 0.8191203,-0.076289 0.8191203,-0.8206336 V 2.1165625 1.0582812 L 2.9104215,0.26457027 Z"
     id="path918"
     inkscape:connector-curvature="0"
     sodipodi:nodetypes="scccssscccs" />
  <path
     inkscape:connector-curvature="0"
     d="M 1.7440685,3.2409837 C 1.9523356,3.0241683 2.1426198,2.7987623 2.1669259,2.740078 2.1912135,2.681391 2.287062,2.5655119 2.3798812,2.4825664 c 0.2429655,-0.217117 0.3847223,-0.2000813 0.5067104,0.060896 0.031079,0.066492 0.073855,0.1208954 0.09506,0.1208954 0.048498,0 0.272145,-0.2177017 0.272145,-0.2649116 0,-0.061161 -0.1147547,-0.1665735 -0.1813365,-0.1665735 -0.070204,0 -0.1374311,-0.1008119 -0.1374311,-0.2060818 0,-0.079768 -0.2195934,-0.3018297 -0.3789917,-0.3832433 -0.07595,-0.038799 -0.2067326,-0.057898 -0.396366,-0.057898 -0.2866619,0 -0.4064858,0.047501 -0.2230143,0.088409 0.055118,0.012276 0.1588586,0.071415 0.2305281,0.1313909 0.1845431,0.1544297 0.177106,0.270457 -0.033373,0.5205738 -0.090028,0.106979 -0.1857548,0.1945068 -0.2127304,0.1945068 -0.059655,0 -0.8632321,0.7471095 -0.8632321,0.8025741 0,0.041873 0.2467012,0.3120924 0.284929,0.3120924 0.012435,0 0.1930226,-0.1773944 0.4012899,-0.3942129 z"
     style="display:inline;opacity:0.5;fill:#808080;fill-opacity:1;stroke-width:0.06916359;enable-background:new"
     id="path31-36-7-5-5" />
  <path
     style="color:#000000;display:inline;overflow:visible;visibility:visible;opacity:0.2;fill:#ffffff;fill-opacity:1;fill-rule:nonzero;stroke:none;stroke-width:0.26457033;marker:none;enable-background:accumulate"
     d="M 2.1167105,0.26457027 V 3.9685547 H 2.885102 c 0.7428341,0 0.8190304,-0.076236 0.8190304,-0.8205807 V 2.1165625 1.0582812 L 2.9104215,0.26457027 Z"
     id="path1009"
     inkscape:connector-curvature="0"
     sodipodi:nodetypes="ccsscccc" />
  <path
     style="color:#000000;display:inline;overflow:visible;visibility:visible;opacity:0.2;fill:#ffffff;fill-opacity:1;fill-rule:nonzero;stroke:none;stroke-width:0.26457033;marker:none;enable-background:accumulate"
     d="M 0.52928851,2.1165625 V 3.147974 c -0.00365,0.7443342 0.076199,0.8205807 0.81903039,0.8205807 H 2.885102 c 0.7428341,0 0.8190304,-0.076236 0.8190304,-0.8205807 V 2.1165625 Z"
     id="path1016"
     inkscape:connector-curvature="0" />
  <path
     style="color:#000000;font-style:normal;font-variant:normal;font-weight:normal;font-stretch:normal;font-size:medium;line-height:normal;font-family:sans-serif;font-variant-ligatures:normal;font-variant-position:normal;font-variant-caps:normal;font-variant-numeric:normal;font-variant-alternates:normal;font-feature-settings:normal;text-indent:0;text-align:start;text-decoration:none;text-decoration-line:none;text-decoration-style:solid;text-decoration-color:#000000;letter-spacing:normal;word-spacing:normal;text-transform:none;writing-mode:lr-tb;direction:ltr;text-orientation:mixed;dominant-baseline:auto;baseline-shift:baseline;text-anchor:start;white-space:normal;shape-padding:0;clip-rule:nonzero;display:inline;overflow:visible;visibility:visible;opacity:0.4;isolation:auto;mix-blend-mode:normal;color-interpolation:sRGB;color-interpolation-filters:linearRGB;solid-color:#000000;solid-opacity:1;vector-effect:none;fill:url(#linearGradient993);fill-opacity:1;fill-rule:nonzero;stroke:none;stroke-width:0.52914065;stroke-linecap:butt;stroke-linejoin:miter;stroke-miterlimit:4;stroke-dasharray:none;stroke-dashoffset:0;stroke-opacity:1;marker:none;color-rendering:auto;image-rendering:auto;shape-rendering:auto;text-rendering:auto;enable-background:accumulate"
     clip-path="none"
     d="m 1.3483189,0.26457027 c -0.74283149,0 -0.82267089,0.076246 -0.81903039,0.82058073 V 2.1165625 3.147974 c -0.00365,0.7443342 0.076199,0.8205807 0.81903039,0.8205807 H 2.885102 c 0.7428341,0 0.8190304,-0.076236 0.8190304,-0.8205807 V 2.1165625 1.0582812 L 2.9104215,0.26457027 Z m 0,0.2645703 H 2.9104215 L 3.4395621,1.0582812 V 2.1165625 3.147974 c 0,0.1815667 -0.00582,0.3159975 -0.019631,0.3984058 -0.013811,0.082406 -0.029841,0.09959 -0.034103,0.1038651 -0.00426,0.00426 -0.021245,0.020293 -0.1033491,0.034103 -0.082112,0.013816 -0.2161962,0.019636 -0.3973767,0.019636 H 1.3483189 c -0.1811778,0 -0.315397,-0.0063 -0.39788729,-0.02016 -0.082493,-0.013837 -0.1000155,-0.029235 -0.104381,-0.033587 -0.00436,-0.00437 -0.019949,-0.021324 -0.03359,-0.1033491 -0.013625,-0.08203 -0.019499,-0.216564 -0.018599,-0.3978899 V 3.1484687 2.1165625 1.0846351 1.084106 c -7.937e-4,-0.18132863 0.00497,-0.31585993 0.018599,-0.39789003 0.013625,-0.08203 0.029222,-0.098992 0.03359,-0.1033491 0.00436,-0.00436 0.02188,-0.019737 0.104381,-0.033587 0.08249,-0.013837 0.21670949,-0.02016 0.39788729,-0.02016 z"
     id="path937"
     inkscape:connector-curvature="0"
     sodipodi:nodetypes="scccssscccsscccscccssccccccccsccs" />
  <path
     inkscape:connector-curvature="0"
     style="color:#000000;display:inline;overflow:visible;visibility:visible;opacity:0.2;fill:#000000;fill-opacity:1;fill-rule:nonzero;stroke:none;stroke-width:0.06614863;marker:none;enable-background:accumulate"
     d="M 3.7041324,1.3228516 V 1.0582812 L 2.9104215,0.26457027 H 2.6458511 v 0.4049434 0.01553 0.00833 c 0,0.54761033 0.073304,0.63205063 0.6221715,0.62936523 z"
     id="rect4158-0-3-62-2-3-7-3"
     sodipodi:nodetypes="ccccccscc" />
  <path
     inkscape:connector-curvature="0"
     style="color:#000000;display:inline;overflow:visible;visibility:visible;fill:#faf8f6;fill-opacity:1;fill-rule:nonzero;stroke:none;stroke-width:0.06614863;marker:none;enable-background:accumulate"
     d="M 3.7041324,1.0581807 2.9104215,0.26457027 v 0.2943848 0.012832 0.00688 c 0,0.45177763 0.020822,0.48176403 0.4736364,0.47954953 z"
     id="rect4158-0-3-62-6-5-5"
     sodipodi:nodetypes="ccccscc" />
</svg>
